sportPriority/img/corporative/ТЕМА 2 простоая отчестность.svg

<svg viewBox="0 0 66.70554 51.89032" xmlns="http://www.w3.org/2000/svg"><g transform="translate(0 .00001)"><path d="m30.45256 29.7979-5.01956-15.82312c-1.81116-5.7092 1.52209-11.38626 6.78271-11.55209l21.0787-.6644a8.91667 8.91667 0 0 1 8.18365 5.74924l4.385 10.3204c2.16216 5.08878-.00117 10.80078-4.6181 12.19351l-20.44416 6.16717c-4.20971 1.2699-8.82157-1.57818-10.34824-6.39071z" fill="#584286"/><g fill="#fff"><path d="m44.79443 25.36818a2.08325 2.08325 0 0 1 -2.08057-2.08057.86011.86011 0 1 0 -1.72021-.00421v.00421a3.817 3.817 0 0 0 2.77686 3.6582l.16406.04492v1.09369a.86011.86011 0 1 0 1.72021.00421v-1.0979l.16455-.0459a3.79991 3.79991 0 0 0 -1.02441-7.4585 2.10927 2.10927 0 0 1 -1.46973-.59473 2.07552 2.07552 0 0 1 1.43458-3.5556h.03467a2.09267 2.09267 0 0 1 2.08105 2.06738.86011.86011 0 0 0 1.72021.00586v-.00342a3.82833 3.82833 0 0 0 -2.77686-3.64648l-.16406-.04639v-.9082a.86011.86011 0 1 0 -1.72021-.00421v.9129l-.16455.0459a3.79376 3.79376 0 0 0 1.02441 7.44727 2.08081 2.08081 0 1 1 0 4.16162z"/><path d="m51.99023.07814h-13.37646a1.05884 1.05884 0 0 0 0 2.11768h13.44092a2.88657 2.88657 0 0 1 2.8833 2.8833v30.60107h-11.02588a3.01592 3.01592 0 0 0 -3.03954 2.99213q-.00018.023 0 .046v11.0273h-12.66457a1.01029 1.01029 0 0 0 -1.01079 1.00977q0 .02783.00151.05566a1.02182 1.02182 0 0 0 .99609.99414c3.75439.05273 13.48779.085 13.56348.085a1.04544 1.04544 0 0 0 .75586-.30859l14.25978-14.19432a1.11026 1.11026 0 0 0 .29492-.75684v-31.53814a4.99319 4.99319 0 0 0 -4.97147-5.01483q-.05358-.00028-.10715.00067zm1.38428 37.73386-10.37158 10.31442v-9.47852a.88379.88379 0 0 1 .918-.83594z"/><path d="m34.15332 38.02785v-32.8848a5.17344 5.17344 0 0 0 -4.40186-5.06738l-.06591-.00977a4.6486 4.6486 0 0 0 -.6753-.0659h-23.86718a5.14885 5.14885 0 0 0 -5.14307 5.14305v41.60355a5.14925 5.14925 0 0 0 5.14307 5.14355h15.1445a1.08683 1.08683 0 0 0 .416-.10352 1.09886 1.09886 0 0 0 .58252-.5625l.0498-.07422 12.26811-12.18456a1.04912 1.04912 0 0 0 .54932-.9375zm-31.91943-32.88477a2.91263 2.91263 0 0 1 2.90918-2.90918h23.86718a2.91263 2.91263 0 0 1 2.90918 2.90918v31.7627h-9.61914a3.15219 3.15219 0 0 0 -3.13037 3.13086v9.61914h-14.02685a2.91232 2.91232 0 0 1 -2.90918-2.90918zm19.16992 34.89063a.802.802 0 0 1 .17334-.58105.82069.82069 0 0 1 .55371-.31055c.03223-.00293.06494-.00488.09814-.00488a.88256.88256 0 0 1 .10156.00586l7.96436-.002-8.89111 8.81641z"/><path d="m10.39648 21.35841h14.36036a1.11694 1.11694 0 0 0 0-2.23389h-14.36036a1.11694 1.11694 0 1 0 0 2.23389z"/><path d="m10.39648 14.30617h5.63672a1.11719 1.11719 0 1 0 .00473-2.23437h-5.64145a1.11719 1.11719 0 0 0 0 2.23438z"/><path d="m10.39648 28.41066h8.9917a1.11719 1.11719 0 0 0 0-2.23437h-8.9917a1.11719 1.11719 0 0 0 0 2.23438z"/></g></g></svg>

<svg id="Слой_1" data-name="Слой 1" xmlns="http://www.w3.org/2000/svg" viewBox="0 0 66.70554 51.89032">
  <defs>
    <style>
      .cls-1 {
        fill: #584286;
      }

      .cls-2 {
        fill: #fff;
      }
    </style>
  </defs>
  <title>ТЕМА 2 простоая отчестность</title>
  <path class="cls-1" d="M30.45256,29.7979,25.433,13.97478c-1.81116-5.7092,1.52209-11.38626,6.78271-11.55209l21.0787-.6644a8.91667,8.91667,0,0,1,8.18365,5.74924l4.385,10.3204c2.16216,5.08878-.00117,10.80078-4.6181,12.19351L40.8008,36.18861C36.59109,37.45851,31.97923,34.61043,30.45256,29.7979Z" transform="translate(0 0.00001)"/>
  <g>
    <path class="cls-2" d="M44.79443,25.36818a2.08325,2.08325,0,0,1-2.08057-2.08057.86011.86011,0,1,0-1.72021-.00421v.00421a3.817,3.817,0,0,0,2.77686,3.6582l.16406.04492v1.09369a.86011.86011,0,1,0,1.72021.00421v-1.0979l.16455-.0459a3.79991,3.79991,0,0,0-1.02441-7.4585,2.10927,2.10927,0,0,1-1.46973-.59473A2.07552,2.07552,0,0,1,44.75977,15.336h.03467a2.09267,2.09267,0,0,1,2.08105,2.06738.86011.86011,0,0,0,1.72021.00586v-.00342a3.82833,3.82833,0,0,0-2.77686-3.64648l-.16406-.04639v-.9082a.86011.86011,0,1,0-1.72021-.00421v.9129l-.16455.0459a3.79376,3.79376,0,0,0,1.02441,7.44727,2.08081,2.08081,0,1,1,0,4.16162Z" transform="translate(0 0.00001)"/>
    <path class="cls-2" d="M51.99023.07814H38.61377a1.05884,1.05884,0,0,0,0,2.11768H52.05469a2.88657,2.88657,0,0,1,2.8833,2.8833V35.68019H43.91211a3.01592,3.01592,0,0,0-3.03954,2.99213q-.00018.023,0,.046V49.74562H28.208a1.01029,1.01029,0,0,0-1.01079,1.00977q0,.02783.00151.05566a1.02182,1.02182,0,0,0,.99609.99414c3.75439.05273,13.48779.085,13.56348.085a1.04544,1.04544,0,0,0,.75586-.30859L56.77393,37.38728a1.11026,1.11026,0,0,0,.29492-.75684V5.0923A4.99319,4.99319,0,0,0,52.09738.07747Q52.0438.07719,51.99023.07814ZM53.37451,37.812,43.00293,48.12642V38.6479a.88379.88379,0,0,1,.918-.83594Z" transform="translate(0 0.00001)"/>
    <path class="cls-2" d="M34.15332,38.02785V5.14305A5.17344,5.17344,0,0,0,29.75146.07567L29.68555.0659A4.6486,4.6486,0,0,0,29.01025,0H5.14307A5.14885,5.14885,0,0,0,0,5.14305V46.7466a5.14925,5.14925,0,0,0,5.14307,5.14355h15.1445a1.08683,1.08683,0,0,0,.416-.10352,1.09886,1.09886,0,0,0,.58252-.5625l.0498-.07422L33.604,38.96535A1.04912,1.04912,0,0,0,34.15332,38.02785ZM2.23389,5.14308A2.91263,2.91263,0,0,1,5.14307,2.2339H29.01025a2.91263,2.91263,0,0,1,2.90918,2.90918v31.7627H22.30029a3.15219,3.15219,0,0,0-3.13037,3.13086v9.61914H5.14307A2.91232,2.91232,0,0,1,2.23389,46.7466ZM21.40381,40.03371a.802.802,0,0,1,.17334-.58105.82069.82069,0,0,1,.55371-.31055c.03223-.00293.06494-.00488.09814-.00488a.88256.88256,0,0,1,.10156.00586l7.96436-.002-8.89111,8.81641Z" transform="translate(0 0.00001)"/>
    <path class="cls-2" d="M10.39648,21.35841H24.75684a1.11694,1.11694,0,0,0,0-2.23389H10.39648a1.11694,1.11694,0,1,0,0,2.23389Z" transform="translate(0 0.00001)"/>
    <path class="cls-2" d="M10.39648,14.30617H16.0332a1.11719,1.11719,0,1,0,.00473-2.23437H10.39648a1.11719,1.11719,0,0,0,0,2.23438Z" transform="translate(0 0.00001)"/>
    <path class="cls-2" d="M10.39648,28.41066h8.9917a1.11719,1.11719,0,0,0,0-2.23437h-8.9917a1.11719,1.11719,0,0,0,0,2.23438Z" transform="translate(0 0.00001)"/>
  </g>
</svg>
